X:88
T:Curtissimo's Frolick
M:6/8
L:1/8
B:Thompson's Compleat Collection of 200 Favourite Country Dances, vol. 1 (London, 1757)
Z:Transcribed and edited by Fynnian Titford-Mock, 2007
Z:abc's:AK/Fiddler's Companion
K:D
DAG FED|fed ecA|dAG FED|Adc d3::fed a2d|edc a2c|
def edc|BA^G A3::BAG d2G|AGF d2F|GAB AGF|EDC D3:|

